X:1
T:Title
%%score 1 { ( 2 5 ) | ( 3 4 ) }
L:1/8
M:6/8
K:Db
V:1 treble nm="Choir Aahs"
V:2 bass nm="Grand Piano"
V:5 bass 
V:3 bass 
V:4 bass 
V:1
 z3 z2[Q:1/4=75] A | A>Bc dBF | F2 E B2 c/B/ | A2 F E2 A | F3- F z A | A>Bc edF | F2 E B2 c/d/ | %7
 A2 F F>GE | D3- D2 F | F>Bd c2 F | B2 d c2 F | G2 G/G/ D2 E | F2 F F2 F | B2 d c2 =G/G/ | %14
[M:7/8] A2 A A3 =G/A/ |[M:3/4] ec- c/d/ c2 B |[M:9/16] A4- A/ |[M:4/4][Q:1/4=90] z8 | z8 | z8 | %20
[M:3/4] z6 |[M:1/4] z2 | z2 |[M:4/4] z8 |[M:9/8] z9 |[M:4/4] z8 |[M:7/8] z7 |] %27
V:2
 z6 | D,[K:treble]FF[K:bass] D,[K:treble]FF | G,,[K:treble]GG[K:bass] G,,[K:treble]GG | %3
 A,,[K:treble]FF[K:bass] A,,[K:treble]GG | D,[K:treble]FF[K:bass] D,[K:treble]FF | %5
 D,[K:treble]FF[K:bass] F,,[K:treble]AA | G,,[K:treble]GG[K:bass] E,,[K:treble]GG | %7
 A,,[K:treble]FF [CF]2[K:bass] [G,CE] | D2- [B,D-] [A,D]2 F | %9
 B,,[K:treble]FF[K:bass] F,,[K:treble]FF | B,,[K:treble]FF F,FF | G2 G D2 E | %12
 F2 [B,DF] [=A,CF]2 F | .B3 .c3 |[M:7/8] A2 z z z z2 |[M:3/4] z2 z .c3 |[M:9/16] A4- A/ | %17
[M:4/4] A2 [Fd]2 [Fd]>[Fd] [Dd]2 | z2 B6 | B2 [FA]2 [FA]>[FA] [EG]2 |[M:3/4] z2 E4- |[M:1/4] E2 | %22
 [CE]2 |[M:4/4] [DF]2 [EG]2 [FA]2 [Fd]>[Fd] |[M:9/8] e2 d- d B2- B [DB]2 | %25
[M:4/4] [DA]2 [DA]>[DA] [CA]2 C2 |[M:7/8] D-D-D- D- D3 |] %27
V:3
 z6 | D,,[A,D][A,D] D,,[A,D][A,D] | z [B,E][B,E] z [B,E][B,E] | z [A,D][A,D] z [A,C][A,C] | %4
 D,,[A,D][A,D] D,,[A,D][A,D] | D,,[A,D][A,D] z [A,D][A,D] | z [B,E][B,E] z [B,E][B,E] | %7
 z [A,D][A,D] z z/ G/A,, | z2 G, .F,3 | z [B,D][B,D] z [=A,C][A,C] | z [B,D][B,D] z [=A,C][A,C] | %11
 .[E,B,D]2 [B,D] .[G,B,]2 [B,D] | [F,=A,C]2 D,/B,,/ F,,2 F, | D,DB,, C,CC, | %14
[M:7/8] F,C[F,C] [_F,_C=D]3 z |[M:3/4] z .[EA]3[K:treble] E[DE=G] |[M:9/16][K:bass] E,->E,F,G,3/2 | %17
[M:4/4] A,2 [D,A,]2 [D,A,]>[D,A,] [F,A,]2 | [D,D]2 [G,DG]2 [G,D]2 [G,D]2 | %19
 [G,DG]2 [D,D]2 [D,A,]>[D,A,] [C,A,]2 |[M:3/4] [D,A,]2 [A,,A,]2 [A,,A,]2 |[M:1/4] [A,,A,]2 | %22
 [A,,A,]2 |[M:4/4] [D,A,]2 [D,A,]2 [D,D]2 [D,A,]>[D,C] | %24
[M:9/8] [G,B,G]2 [G,B,G]- [G,B,G] [G,DG]2- [G,DG] [G,,G,]2 | %25
[M:4/4] [A,,F,]2 [A,,F,]>[A,,F,] [A,,E,]2 [A,,G,A,]2 |[M:7/8] [F,A,]2 G,2 F,3 |] %27
V:4
 x6 | x6 | x6 | x6 | x6 | x6 | x6 | z3 .[A,,E,]3 | D,6 | x6 | x6 | x6 | x6 | x6 |[M:7/8] x7 | %15
[M:3/4] E,3 E,,3[K:treble] |[M:9/16][K:bass] A,,4- A,,/ |[M:4/4] x8 | x8 | x8 |[M:3/4] x6 | %21
[M:1/4] x2 | x2 |[M:4/4] x8 |[M:9/8] x9 |[M:4/4] x8 |[M:7/8] D,-D,-D,- D,- D,3 |] %27
V:5
 x6 | x[K:treble] x2[K:bass] x[K:treble] x2 | x[K:treble] x2[K:bass] x[K:treble] x2 | %3
 x[K:treble] x2[K:bass] x[K:treble] x2 | x[K:treble] x2[K:bass] x[K:treble] x2 | %5
 x[K:treble] x2[K:bass] x[K:treble] x2 | x[K:treble] x2[K:bass] x[K:treble] x2 | %7
 x[K:treble] x4[K:bass] x | .[F,A,]3 z3 | x[K:treble] x2[K:bass] x[K:treble] x2 | x[K:treble] x5 | %11
 x6 | x6 | z F[DFd] z _F[CF=G] |[M:7/8] z FA A3 =G/A/ |[M:3/4] ec- c<.d =GB |[M:9/16] C->CDE3/2 | %17
[M:4/4] x8 | [FA]2 z2 G2 G2 | x8 |[M:3/4] [DF]2 C2 C2 |[M:1/4] C2 | x2 |[M:4/4] x8 |[M:9/8] x9 | %25
[M:4/4] x8 |[M:7/8] z2 B,2 A,3 |] %27

